src/assets/icons/weeks,simple,22.svg

<svg width="48" height="48" viewBox="0 0 48 48" fill="none" xmlns="http://www.w3.org/2000/svg">
<rect opacity="0.2" x="5" y="5" width="38" height="38" rx="4" fill="black"/>
<path d="M5 13C5 9.22876 5 7.34315 6.17157 6.17157C7.34315 5 9.22876 5 13 5H35C38.7712 5 40.6569 5 41.8284 6.17157C43 7.34315 43 9.22876 43 13V15H5V13Z" fill="black"/>
<path d="M10.2976 38H22.7408V34.983H15.4112V34.8636L17.9595 32.3665C21.5476 29.0938 22.5107 27.4574 22.5107 25.4716C22.5107 22.446 20.0391 20.3068 16.2976 20.3068C12.6328 20.3068 10.1186 22.4972 10.1271 25.9233H13.63C13.6214 24.2528 14.6783 23.2301 16.272 23.2301C17.8061 23.2301 18.9482 24.1847 18.9482 25.7188C18.9482 27.108 18.0959 28.0625 16.5107 29.5881L10.2976 35.3409V38ZM25.4148 38H37.858V34.983H30.5284V34.8636L33.0767 32.3665C36.6648 29.0938 37.6278 27.4574 37.6278 25.4716C37.6278 22.446 35.1562 20.3068 31.4148 20.3068C27.75 20.3068 25.2358 22.4972 25.2443 25.9233H28.7472C28.7386 24.2528 29.7955 23.2301 31.3892 23.2301C32.9233 23.2301 34.0653 24.1847 34.0653 25.7188C34.0653 27.108 33.2131 28.0625 31.6278 29.5881L25.4148 35.3409V38Z" fill="black"/>
</svg>

<svg xmlns="http://www.w3.org/2000/svg" width="48" height="48" fill="none" viewBox="0 0 48 48">
  <rect width="38" height="38" x="5" y="5" fill="#000" opacity=".2" rx="4"/>
  <path fill="#000" d="M5 13c0-3.771 0-5.657 1.172-6.828C7.343 5 9.229 5 13 5h22c3.771 0 5.657 0 6.828 1.172C43 7.343 43 9.229 43 13v2H5v-2zM10.298 38H22.74v-3.017h-7.33v-.12l2.548-2.496c3.589-3.273 4.552-4.91 4.552-6.895 0-3.026-2.472-5.165-6.213-5.165-3.665 0-6.18 2.19-6.17 5.616h3.502c-.009-1.67 1.048-2.693 2.642-2.693 1.534 0 2.676.955 2.676 2.489 0 1.389-.852 2.343-2.437 3.87l-6.213 5.752V38zm15.117 0h12.443v-3.017h-7.33v-.12l2.549-2.496c3.588-3.273 4.55-4.91 4.55-6.895 0-3.026-2.47-5.165-6.212-5.165-3.665 0-6.18 2.19-6.17 5.616h3.502c-.008-1.67 1.049-2.693 2.642-2.693 1.534 0 2.676.955 2.676 2.489 0 1.389-.852 2.343-2.437 3.87l-6.213 5.752V38z"/>
</svg>
